img/selection/speed-basic.svg

<svg viewBox="0 0 353 353" fill="none" xmlns="http://www.w3.org/2000/svg">
    <g clip-path="url(#FYS_Speed_basic_svg__a)">
        <path
            d="M176.55 0C79.36-.63.12 78.68 0 175.27c-.12 98.8 78.11 176.6 175.23 177.25 99.46.67 174.86-78.44 177.59-171.24C355.8 79.78 272.23-1.3 176.55 0Z"
            fill="#D8E9F3"></path>
        <path
            d="M313.92 173.8c-.19 38.54-11.43 68.41-33.36 94.34-2.83 3.35-6.08 5.36-10.46 3.45-3.44-1.51-4.81-4.42-4.35-8.16.31-2.51 2.11-4.11 3.6-5.87a119.401 119.401 0 0 0 27.53-59.5 121.936 121.936 0 0 0-66.59-128.82c-74.7-36.86-163.43 10.09-174.92 92.88-5 35.7 4.7 67.57 27.78 95.31 1.61 1.93 3.45 3.73 3.73 6.35.38 3.5-.95 6.24-4.23 7.72-3.64 1.64-6.79.79-9.44-2.17a131.139 131.139 0 0 1-23.3-36.46C15.76 152 62.69 61.53 148.72 43.94c44.3-9.07 84.39 1.72 118.55 31.66 30.89 27.08 45.93 61.72 46.65 98.2Z"
            fill="url(#FYS_Speed_basic_svg__b)"></path>
        <path
            d="M107.07 124.1c8.79 5.89 17.55 11.82 26.38 17.66 13 8.62 26.03 17.197 39.09 25.73 4.49 2.92 5.65 7 2.8 10.91-2.47 3.37-7 3.8-10.48.6a10900.018 10900.018 0 0 1-57.75-52.77 4.269 4.269 0 0 1-.68-1.23l.64-.9Z"
            fill="#61646B"></path>
    </g>
    <defs>
        <linearGradient id="FYS_Speed_basic_svg__b" x1="68.47" y1="156.58" x2="278.85" y2="156.58"
            gradientUnits="userSpaceOnUse">
            <stop stop-color="#00B086"></stop>
            <stop offset="1" stop-color="#1852C7"></stop>
        </linearGradient>
        <clipPath id="FYS_Speed_basic_svg__a">
            <path fill="#fff" d="M0 0h352.9v352.53H0z"></path>
        </clipPath>
    </defs>
</svg>

<?xml version="1.0" encoding="UTF-8" standalone="no"?>
<svg
   viewBox="0 0 384 191"
   fill="none"
   version="1.1"
   id="svg20"
   sodipodi:docname="speed-basic.svg"
   width="384"
   height="191"
   inkscape:version="1.1 (c68e22c387, 2021-05-23)"
   xmlns:inkscape="http://www.inkscape.org/namespaces/inkscape"
   xmlns:sodipodi="http://sodipodi.sourceforge.net/DTD/sodipodi-0.dtd"
   xmlns="http://www.w3.org/2000/svg"
   xmlns:svg="http://www.w3.org/2000/svg">
  <sodipodi:namedview
     id="namedview22"
     pagecolor="#ffffff"
     bordercolor="#666666"
     borderopacity="1.0"
     inkscape:pageshadow="2"
     inkscape:pageopacity="0.0"
     inkscape:pagecheckerboard="0"
     showgrid="false"
     inkscape:zoom="1.8470255"
     inkscape:cx="137.2477"
     inkscape:cy="123.17101"
     inkscape:window-width="1600"
     inkscape:window-height="837"
     inkscape:window-x="-8"
     inkscape:window-y="-8"
     inkscape:window-maximized="1"
     inkscape:current-layer="svg20" />
  <g
     id="g843"
     transform="matrix(0.53840021,0,0,0.53897005,97,0.50000043)">
    <g
       clip-path="url(#FYS_Speed_basic_svg__a)"
       id="g8">
      <path
         d="M 176.55,0 C 79.36,-0.63 0.12,78.68 0,175.27 c -0.12,98.8 78.11,176.6 175.23,177.25 99.46,0.67 174.86,-78.44 177.59,-171.24 C 355.8,79.78 272.23,-1.3 176.55,0 Z"
         fill="#d8e9f3"
         id="path2" />
      <path
         d="m 313.92,173.8 c -0.19,38.54 -11.43,68.41 -33.36,94.34 -2.83,3.35 -6.08,5.36 -10.46,3.45 -3.44,-1.51 -4.81,-4.42 -4.35,-8.16 0.31,-2.51 2.11,-4.11 3.6,-5.87 A 119.401,119.401 0 0 0 296.88,198.06 121.936,121.936 0 0 0 230.29,69.24 C 155.59,32.38 66.86,79.33 55.37,162.12 c -5,35.7 4.7,67.57 27.78,95.31 1.61,1.93 3.45,3.73 3.73,6.35 0.38,3.5 -0.95,6.24 -4.23,7.72 -3.64,1.64 -6.79,0.79 -9.44,-2.17 A 131.139,131.139 0 0 1 49.91,232.87 C 15.76,152 62.69,61.53 148.72,43.94 c 44.3,-9.07 84.39,1.72 118.55,31.66 30.89,27.08 45.93,61.72 46.65,98.2 z"
         fill="url(#FYS_Speed_basic_svg__b)"
         id="path4"
         style="fill:url(#FYS_Speed_basic_svg__b)" />
      <path
         d="m 107.07,124.1 c 8.79,5.89 17.55,11.82 26.38,17.66 13,8.62 26.03,17.197 39.09,25.73 4.49,2.92 5.65,7 2.8,10.91 -2.47,3.37 -7,3.8 -10.48,0.6 A 10900.018,10900.018 0 0 1 107.11,126.23 4.269,4.269 0 0 1 106.43,125 Z"
         fill="#61646b"
         id="path6" />
    </g>
  </g>
  <defs
     id="defs18">
    <linearGradient
       id="FYS_Speed_basic_svg__b"
       x1="68.470001"
       y1="156.58"
       x2="278.85001"
       y2="156.58"
       gradientUnits="userSpaceOnUse">
      <stop
         stop-color="#00B086"
         id="stop10" />
      <stop
         offset="1"
         stop-color="#1852C7"
         id="stop12" />
    </linearGradient>
    <clipPath
       id="FYS_Speed_basic_svg__a">
      <path
         fill="#ffffff"
         d="M 0,0 H 352.9 V 352.53 H 0 Z"
         id="path15" />
    </clipPath>
  </defs>
</svg>
